X:1
T:Title
L:1/8
M:9/8
I:linebreak $
K:G
V:1 treble nm="Voice"
V:1
"G" gdB GFG AGA |[M:6/8] B2 G G2 A | [EB]3"C" EAG |"D" FAF DEF |"G" PGFG"D" AGA |"G" BGB"C" e2 f |1 %6
"G" gfg eag |"D" Pf2 d def :|2"G" gdB GFG |"D" AGG"G" G3 |:"G" [Gg][Gg][Gg] [Bb]2 [Bb] | %11
"C" Pe2 f"G" [Gg]3 | gfg"C" eag |"D" fdd d3 |"D" fdd"G" gdd |"D" add"G" b2 Pa | gfg"A" eag | %17
"D" Pf2 d def :| %18
